X: 3360
T: The FIRE FLY HORNPIPE
R: Hornpipe.
%R: hornpipe, shottish, reel
B: James Kerr "Merry Melodies" v.3 p.40 #360
Z: 2016 John Chambers <jc:trillian.mit.edu>
M: C
L: 1/8
K: Bb
(3(FGA) |\
B>AB>c B>dc>B | A>BF>A F>GE>F |\
D>FB>F G>Ee>d | (3cdc (3BAG F2 (3(FGA) |\
B>AB>c B>dc>B | A>BG>A F>GE>F |\
D>FB>d d>cB>A | c2B2B2 :|
|: (F>E) |\
(3DFB d2 (3Bdf b2 | b3a g>fe>d |\
e>de>f e>dc>B | A>cB>G F2(F>E) |\
(3DFB d2 (3Bdf b2 | b3a g>fe>d |\
e>dc>B A>fg>a | b2b2b2 :|

%%sep 1 1 500
%%sep 1 1 500

